!!!!SEGMENT: pl-wn--sd-xvi-qu-273--061_gomolka-mikolaj--uslysz-me-prosby-boze-wladze-wiecznej.krn
!!!cenid: 15xx:266
!!!COM: Gomółka, Mikołaj
!!!COM-rismid: pe30013343
!!!CDT: ~1535->1591/04/30
!!!CNT: Polish
!!!GTL: Melodiae na psalterz polski
!!!OTL: LXI. Usłysz me prośby, Boże władze wiecznej,
!!!PDT: 1580
!!!AGN: Sacred
!!!SMS-siglum: PL-Wn
!!!SMS-shelfmark: SD XVI.Qu.273
!!!SMS-shelfwork: 061 G
!!!NIFC-rismid:
!!!ONB-nifc: Melodiae na psalterz polski
**kern	**text	**kern	**text	**kern	**text	**kern	**text
*part4	*part4	*part3	*part3	*part2	*part2	*part1	*part1
*staff4	*staff4	*staff3	*staff3	*staff2	*staff2	*staff1	*staff1
*clefF4	*	*clefC3	*	*clefC3	*	*clefC1	*
*k[b-]	*	*k[b-]	*	*k[b-]	*	*k[b-]	*
*C:	*	*C:	*	*C:	*	*C:	*
*M4/2	*	*M4/2	*	*M4/2	*	*M4/2	*
*met(C|)	*	*met(C|)	*	*met(C|)	*	*met(C|)	*
*	*verse[1]	*	*verse[1]	*	*verse[1]	*	*verse[1]
=-	=-	=-	=-	=-	=-	=-	=-
1G	Uʃ-	1G	Uʃ-	1d	Uʃ-	1g	Uʃ-
2G	-łyʃᴣ	2B-	-łyʃᴣ	2g	-łyʃᴣ	2dd	-łyʃᴣ
2G	mé	2B-	mé	2g	mé	2dd	mé
=3-	=3-	=3-	=3-	=3-	=3-	=3-	=3-
1C	pr(oś-)	1c	pro(ś-)	1g	pr(oś-)	1ee	pro(ś-)
2D/	(-by)	2A	(-by)	2f	(-by)	2dd	(-by)
1BB-	bo-	1d	bo-	1f	bo-	1dd	bo-
=4-	=4-	=4-	=4-	=4-	=4-	=4-	=4-
.	.	.	.	.	.	.	.
!	!ż	!	!ż	!	!ż	!	!ż
2E	-ʒe	1e	-ʒe_wł(a-)	1g	-ʒe_wł(a-)	2b-	-ʒe
2C	wł(a-)	.	.	.	.	2cc	wł(a-)
2D/	(-dʒe)	2d	(-dʒe)	2f	(-dʒe)	1b-	(-dʒe)
=5-	=5-	=5-	=5-	=5-	=5-	=5-	=5-
2E	w(iecʒ-)	2c/	wi(ecʒ-)	2e	wie(cʒ-)	.	.
2F	.	2c/	.	2c/	.	2a	wie(cʒ-)
2BB-	(-néy),	2B-	(-néy),	2d	(-néy),	2b-	(-néy)
2F	A	2c/	A	2f	A	2á	á
=6-	=6-	=6-	=6-	=6-	=6-	=6-	=6-
2D/	ob-	2d	ob-	2f	ob-	2a	ob-
2AA	(-róć)	2c/	(-róć)	2e	(-róć)	2cc	(-róć)
2BB-	ťu	2.d	ťu	2d	ťu	1b-	ťu
2GG	.	.	.	2g	.	.	.
.	.	4e	.	.	.	.	.
=7-	=7-	=7-	=7-	=7-	=7-	=7-	=7-
2D/	m(nie)	2.f	mn(ie)	2d	m(nie)	2a	m(nie)
1BB-	świę-	.	.	1f	świę-	1b-	świę-
.	.	4e	.	.	.	.	.
.	.	2d	świę-	.	.	.	.
2C	(-té)	4c	(-té)	2e	(-té)	4a	(-té)
.	.	4B-	.	.	.	4g	.
=8-	=8-	=8-	=8-	=8-	=8-	=8-	=8-
2D/	u-	2A	u-	2d	u-	2f#X	u-
2E	-ʃᴣy	2G	-ʃᴣy	2c/	-ʃᴣy	1g	-ʃᴣy
1D	ʃwo-	1A	ʃwo-	1d	ʃw(o-)	.	.
.	.	.	.	.	.	2f#	ʃw(o-)
=9-	=9-	=9-	=9-	=9-	=9-	=9-	=9-
1GG	-je	1G	(-je)	1d	(-je)	1g	(-je)
1D	Ʒ_grá-	2.A	Ʒ_grá-	1f	Ʒ_grá-	1a	Ʒ_grá-
.	.	4B-	.	.	.	.	.
=10-	=10-	=10-	=10-	=10-	=10-	=10-	=10-
2A	-ni-	2c/	-ni-	4e	-ni-	2a	-ni-
.	.	.	.	4d	.	.	.
2A	-cé	2c#X/	-cé	4e	-cé	2a	-cé
.	.	.	.	4f	.	.	.
!!LO:PB:G=original
2.G	prá-	1d	prá-	1g	prá-	1b-X	prá-
4F	.	.	.	.	.	.	.
=11-	=11-	=11-	=11-	=11-	=11-	=11-	=11-
4E	.	2e	-wié	2g	-wié	2cc	-wié
4D	.	.	.	.	.	.	.
2C	-wié	2e	.	2g	.	2cc	.
1F	świá_tá	1f	świá_tá-	2.c/	świá-	2.a	świá-
.	.	.	.	.	.	.	.
.	.	.	.	4d	.	4b-	-tá
=12-	=12-	=12-	=12-	=12-	=12-	=12-	=12-
2E	oʃ-	2g	oʃ-	2cX	-tá	2cc#X	oʃ-
4.D	-tá-	2.f	-tá-	2.a	oʃ-	1dd	-tá-
8C	.	.	.	.	.	.	.
8BB-L	.	.	.	.	.	.	.
8AAJ	.	.	.	.	.	.	.
4BB-	.	8eL	.	4g	-tá-	.	.
.	.	8dJ	.	.	.	.	.
2AA	-tecʒ-	8eL	-tecʒ-	2a	-tecʒ-	2cc#	-tecʒ-
.	.	8fJ	.	.	.	.	.
.	.	4e	.	.	.	.	.
=13-	=13-	=13-	=13-	=13-	=13-	=13-	=13-
2D/	-néy	2d	-néy	2fX	-néy	2dd	-néy
2G	Do	2d	Do	2g#	Do	2b-	Do
2E-X	ćie-	2e-X	ćie-	2g#	ćie-	2b-	ćie-
2E-	-bie	2e-	-bie	2g#	-bie	2b-	-bie
=14-	=14-	=14-	=14-	=14-	=14-	=14-	=14-
1D	wʒdy-	2.f	wʒdy-	2.a	wʒdy-	2.f	wʒdy-
.	.	4e	.	4g	.	4g/	.
2D/	-cha	2d	-cha	4f	-cha	2a	-cha
.	.	.	.	4e	.	.	.
4r	.	4r	.	4r	.	4r	.
4D/	ʃmut-	4d	ʃmut-	4f	ʃmut-	4a	ʃmut-
=15-	=15-	=15-	=15-	=15-	=15-	=15-	=15-
2D/	-né	4d	-né	2f	-né	4b-	-né
.	.	4c/	.	.	.	4a	.
2E	ʃer-	4B-	ʃer-	2e	ʃer-	2g/	ʃer-
.	.	8AL	.	.	.	.	.
.	.	8B-J	.	.	.	.	.
2C	-cé	2c/	-cé	2e	-cé	2g/	-cé
2D/	mo-	2A	mo-	4d	mo-	2f	mo-
.	.	.	.	4c/	.	.	.
=16-	=16-	=16-	=16-	=16-	=16-	=16-	=16-
!!LO:N:vis=00
0GG	-je.	0G	-je.	0B-	-je.	0g	-je.
=-	=-	=-	=-	=-	=-	=-	=-
*-	*-	*-	*-	*-	*-	*-	*-
!!!RDF**kern: l = terminal long
!!!system-decoration: s1,s2,s3,s4
!!!ENC:Anna Matuszewska
!!!END:2020-02-12
!!!URL-scan: https://polona.pl/item/melodiae-na-psalterz-polski,Nzk3MTM4ODQ/154 Scan on Polona
!!!IIIF: https://polona.pl/iiif/item/Nzk3MTM4ODQ/manifest.json
